synths/sADA.svg

<svg width="480" height="480" viewBox="0 0 480 480" fill="none" xmlns="http://www.w3.org/2000/svg"><mask id="mask0-079393" maskUnits="userSpaceOnUse" x="0" y="0" width="480" height="480"><circle cx="240" cy="240" r="240" fill="url(#paint0_linear-892426)"/></mask><g mask="url(#mask0-079393)"><circle cx="240" cy="240" r="240" fill="#31D8A4"/><circle cx="240" cy="240" r="208" fill="#fff"/></g><circle cx="240" cy="240" r="184" fill="#0E052F"/><path d="M240 424c101.62 0 184-82.38 184-184S341.62 56 240 56 56 138.38 56 240s82.38 184 184 184z" fill="#0D1E30"/><g filter="url(#filter0_d-573531)"><path d="M236.833 125.692c5.508-2.84 12.236 3.726 9.315 9.143-1.714 4.416-8.165 5.589-11.454 2.219-3.485-3.22-2.346-9.614 2.139-11.373v.011zm-59.283 6.279c3.347-1.357 7.59 1.656 7.245 5.256.345 3.887-4.485 6.762-7.9 4.91-4.52-1.725-4.002-8.947.655-10.166zm121.417 10.27c-5.232-.621-6.06-8.717-1.035-10.35 3.91-1.863 7.498 1.644 8.073 5.29-.828 3.105-3.473 5.957-7.038 5.06zM191.04 156.788c5.6-3.484 13.581 1.702 12.719 8.108-.288 6.451-9.005 10.2-13.927 5.83-4.761-3.427-4.036-11.293 1.208-13.938zm85.445 3.703c2.495-6.325 12.615-6.532 15.456-.368 2.817 4.796-.644 10.741-5.647 12.374-6.635 1.219-12.926-5.842-9.809-12.006zm-46.794 11.65c-.057-5.451 4.98-9.499 10.235-9.879 3.496.69 7.291 2.151 8.786 5.612 2.795 4.784.311 11.351-4.715 13.547-2.3 1.265-5.037.794-7.544.644-3.829-1.84-7.061-5.485-6.762-9.924zm-88.159 7.935c5.118-3.105 12.018 2.53 10.074 8.004-1.058 4.726-7.521 6.647-11.212 3.634-3.945-2.829-3.324-9.626 1.15-11.65l-.012.012zm189.313-.023c4.336-3.312 11.5.494 10.971 5.876.299 4.911-5.899 8.625-10.2 6.095-4.738-2.104-5.233-9.28-.771-11.96v-.011zm-76.36 9.786c7.153-2.53 15.663.495 19.734 6.785 5.382 7.671 2.53 19.355-5.83 23.759-8.648 5.21-21.287.805-24.495-8.717-3.623-8.51 1.667-19.159 10.58-21.827h.011zm-42.009.84c7.935-3.68 18.618-.598 22.448 7.383 4.508 7.774 1.023 18.595-7.038 22.609-8.073 4.519-19.47 1.092-23.368-7.245-4.382-8.073-.495-19.033 7.958-22.747zm-42.056 14.133c.61-5.025 5.428-8.303 10.293-8.648a11.27 11.27 0 0110.005 9.856c-.345 5.175-4.405 10.212-9.971 10.189-6.129.517-11.5-5.486-10.327-11.397zm124.223-7.544c6.291-3.599 15.019 1.633 14.743 8.74.426 7.533-9.234 12.834-15.49 8.418-6.509-3.68-6.003-14.03.747-17.158zm-99.245 26.531c7.337-1.99 15.755 1.414 19.355 8.061 3.944 6.693 2.334 15.985-3.795 20.907-7.878 7.199-22.379 4.301-26.565-5.52-4.819-9.004 1.035-21.079 10.994-23.46l.011.012zm79.661-.035c7.141-2.012 15.536.69 19.377 7.096 5.083 7.325 2.657 18.262-4.899 22.977-7.935 5.485-20.194 2.61-24.564-5.969-5.29-8.866.035-21.401 10.086-24.104zm-126.96 8.349c6.348-2.357 13.386 4.531 10.81 10.73-1.564 5.635-9.649 7.728-13.823 3.565-4.888-3.91-3.082-12.593 3.013-14.295zm172.143 8.993a9.616 9.616 0 019.062-10.051c4.347.69 8.579 4.14 8.234 8.798.403 6.152-7.13 10.327-12.466 7.44-2.495-1.253-3.772-3.772-4.83-6.187zm-203.366-5.934c3.818-1.644 8.545 1.61 7.671 5.785-.207 4.726-7.303 6.555-9.902 2.599-2.3-2.749-.92-6.969 2.231-8.395v.011zm240.914-.103c2.691-1.875 7.015-.529 8.073 2.564 1.805 3.381-1.507 8.004-5.371 7.441-5.428.483-7.176-7.648-2.702-10.005zm-141.646 22.689c10.051-2.564 20.861 5.681 20.93 15.87.644 10.293-10.005 19.412-20.286 17.043-7.958-1.265-14.202-8.809-13.938-16.709-.023-7.567 5.773-14.605 13.294-16.204zm39.813-.011c10.201-2.806 21.333 5.589 21.172 16.008.54 10.097-9.775 18.917-19.849 16.905-9.488-1.196-16.48-11.443-13.835-20.505 1.334-6.026 6.463-10.925 12.512-12.42v.012zm-76.774 6.267c7.061-1.184 13.685 6.555 10.822 13.156-2.093 7.038-12.489 8.936-17.089 3.197-5.382-5.52-1.357-15.594 6.267-16.353zm116.771.311c6.302-2.599 14.03 2.76 13.547 9.487.253 7.395-9.292 12.501-15.444 8.177-6.981-3.876-5.704-15.295 1.897-17.664zm32.637 32.2c-2.461-4.52 2.013-10.511 7.13-9.672 2.53-.046 4.313 1.921 5.934 3.577.334 2.679.897 5.876-1.368 7.935-3.071 3.829-10.028 2.737-11.696-1.84zm-187.082-8.418c4.773-3.117 11.638 1.541 10.557 7.015-.575 4.864-6.785 7.636-10.867 4.876-4.393-2.496-4.232-9.614.31-11.891zm94.22 10.154c6.244-2.702 14.202 2.645 13.604 9.407.46 7.475-9.372 12.65-15.479 8.165-6.785-3.852-5.646-15.191 1.875-17.572zm-43.631 10.017c5.313-2.749 12.443 2.001 11.96 7.866.161 4.807-4.6 8.901-9.43 8.188-3.991-.081-6.59-3.611-7.878-6.958.069-3.645 1.599-7.705 5.348-9.085v-.011zm88.389.092c5.474-3.335 13.248 1.449 12.73 7.705.138 6.555-8.648 10.741-13.742 6.44-4.922-3.37-4.324-11.466 1.012-14.145zm15.375 37.375c-2.438-3.611.426-7.97 4.37-8.798 3.186.633 6.555 2.99 5.877 6.601-.46 4.911-7.751 6.406-10.247 2.208v-.011zm-122.026-3.14c.966-2.875 3.312-5.715 6.75-4.968 5.003.345 6.486 7.774 2.105 10.063-3.933 2.61-8.51-.966-8.855-5.095zm58.88 3.301c.954-4.255 6.532-6.314 10.212-4.06 2.438 1.035 3.151 3.703 3.772 5.98a101.813 101.813 0 00-.92 3.565c-1.507 1.748-3.45 3.508-5.957 3.45-4.658.541-8.867-4.646-7.119-8.935h.012z" fill="#000"/></g><path d="M236.833 125.692c5.508-2.84 12.236 3.726 9.315 9.143-1.714 4.416-8.165 5.589-11.454 2.219-3.485-3.22-2.346-9.614 2.139-11.373v.011zm-59.283 6.279c3.347-1.357 7.59 1.656 7.245 5.256.345 3.887-4.485 6.762-7.9 4.91-4.52-1.725-4.002-8.947.655-10.166zm121.417 10.27c-5.232-.621-6.06-8.717-1.035-10.35 3.91-1.863 7.498 1.644 8.073 5.29-.828 3.105-3.473 5.957-7.038 5.06zM191.04 156.788c5.6-3.484 13.581 1.702 12.719 8.108-.288 6.451-9.005 10.2-13.927 5.83-4.761-3.427-4.036-11.293 1.208-13.938zm85.445 3.703c2.495-6.325 12.615-6.532 15.456-.368 2.817 4.796-.644 10.741-5.647 12.374-6.635 1.219-12.926-5.842-9.809-12.006zm-46.794 11.65c-.057-5.451 4.98-9.499 10.235-9.879 3.496.69 7.291 2.151 8.786 5.612 2.795 4.784.311 11.351-4.715 13.547-2.3 1.265-5.037.794-7.544.644-3.829-1.84-7.061-5.485-6.762-9.924zm-88.159 7.935c5.118-3.105 12.018 2.53 10.074 8.004-1.058 4.726-7.521 6.647-11.212 3.634-3.945-2.829-3.324-9.626 1.15-11.65l-.012.012zm189.313-.023c4.336-3.312 11.5.494 10.971 5.876.299 4.911-5.899 8.625-10.2 6.095-4.738-2.104-5.233-9.28-.771-11.96v-.011zm-76.36 9.786c7.153-2.53 15.663.495 19.734 6.785 5.382 7.671 2.53 19.355-5.83 23.759-8.648 5.21-21.287.805-24.495-8.717-3.623-8.51 1.667-19.159 10.58-21.827h.011zm-42.009.84c7.935-3.68 18.618-.598 22.448 7.383 4.508 7.774 1.023 18.595-7.038 22.609-8.073 4.519-19.47 1.092-23.368-7.245-4.382-8.073-.495-19.033 7.958-22.747zm-42.056 14.133c.61-5.025 5.428-8.303 10.293-8.648a11.27 11.27 0 0110.005 9.856c-.345 5.175-4.405 10.212-9.971 10.189-6.129.517-11.5-5.486-10.327-11.397zm124.223-7.544c6.291-3.599 15.019 1.633 14.743 8.74.426 7.533-9.234 12.834-15.49 8.418-6.509-3.68-6.003-14.03.747-17.158zm-99.245 26.531c7.337-1.99 15.755 1.414 19.355 8.061 3.944 6.693 2.334 15.985-3.795 20.907-7.878 7.199-22.379 4.301-26.565-5.52-4.819-9.004 1.035-21.079 10.994-23.46l.011.012zm79.661-.035c7.141-2.012 15.536.69 19.377 7.096 5.083 7.325 2.657 18.262-4.899 22.977-7.935 5.485-20.194 2.61-24.564-5.969-5.29-8.866.035-21.401 10.086-24.104zm-126.96 8.349c6.348-2.357 13.386 4.531 10.81 10.73-1.564 5.635-9.649 7.728-13.823 3.565-4.888-3.91-3.082-12.593 3.013-14.295zm172.143 8.993a9.616 9.616 0 019.062-10.051c4.347.69 8.579 4.14 8.234 8.798.403 6.152-7.13 10.327-12.466 7.44-2.495-1.253-3.772-3.772-4.83-6.187zm-203.366-5.934c3.818-1.644 8.545 1.61 7.671 5.785-.207 4.726-7.303 6.555-9.902 2.599-2.3-2.749-.92-6.969 2.231-8.395v.011zm240.914-.103c2.691-1.875 7.015-.529 8.073 2.564 1.805 3.381-1.507 8.004-5.371 7.441-5.428.483-7.176-7.648-2.702-10.005zm-141.646 22.689c10.051-2.564 20.861 5.681 20.93 15.87.644 10.293-10.005 19.412-20.286 17.043-7.958-1.265-14.202-8.809-13.938-16.709-.023-7.567 5.773-14.605 13.294-16.204zm39.813-.011c10.201-2.806 21.333 5.589 21.172 16.008.54 10.097-9.775 18.917-19.849 16.905-9.488-1.196-16.48-11.443-13.835-20.505 1.334-6.026 6.463-10.925 12.512-12.42v.012zm-76.774 6.267c7.061-1.184 13.685 6.555 10.822 13.156-2.093 7.038-12.489 8.936-17.089 3.197-5.382-5.52-1.357-15.594 6.267-16.353zm116.771.311c6.302-2.599 14.03 2.76 13.547 9.487.253 7.395-9.292 12.501-15.444 8.177-6.981-3.876-5.704-15.295 1.897-17.664zm32.637 32.2c-2.461-4.52 2.013-10.511 7.13-9.672 2.53-.046 4.313 1.921 5.934 3.577.334 2.679.897 5.876-1.368 7.935-3.071 3.829-10.028 2.737-11.696-1.84zm-187.082-8.418c4.773-3.117 11.638 1.541 10.557 7.015-.575 4.864-6.785 7.636-10.867 4.876-4.393-2.496-4.232-9.614.31-11.891zm94.22 10.154c6.244-2.702 14.202 2.645 13.604 9.407.46 7.475-9.372 12.65-15.479 8.165-6.785-3.852-5.646-15.191 1.875-17.572zm-43.631 10.017c5.313-2.749 12.443 2.001 11.96 7.866.161 4.807-4.6 8.901-9.43 8.188-3.991-.081-6.59-3.611-7.878-6.958.069-3.645 1.599-7.705 5.348-9.085v-.011zm88.389.092c5.474-3.335 13.248 1.449 12.73 7.705.138 6.555-8.648 10.741-13.742 6.44-4.922-3.37-4.324-11.466 1.012-14.145zm15.375 37.375c-2.438-3.611.426-7.97 4.37-8.798 3.186.633 6.555 2.99 5.877 6.601-.46 4.911-7.751 6.406-10.247 2.208v-.011zm-122.026-3.14c.966-2.875 3.312-5.715 6.75-4.968 5.003.345 6.486 7.774 2.105 10.063-3.933 2.61-8.51-.966-8.855-5.095zm58.88 3.301c.954-4.255 6.532-6.314 10.212-4.06 2.438 1.035 3.151 3.703 3.772 5.98a101.813 101.813 0 00-.92 3.565c-1.507 1.748-3.45 3.508-5.957 3.45-4.658.541-8.867-4.646-7.119-8.935h.012z" fill="#fff"/><defs><linearGradient id="paint0_linear-892426" x1="240" y1="0" x2="240" y2="701.818" gradientUnits="userSpaceOnUse"><stop stop-color="#08021E"/><stop offset="1" stop-color="#1F0777"/></linearGradient><filter id="filter0_d-573531" x="112.5" y="124.507" width="254.869" height="231.873" filterUnits="userSpaceOnUse" color-interpolation-filters="sRGB"><feFlood flood-opacity="0" result="BackgroundImageFix"/><feColorMatrix in="SourceAlpha" values="0 0 0 0 0 0 0 0 0 0 0 0 0 0 0 0 0 0 127 0"/><feOffset dy=".5"/><feGaussianBlur stdDeviation=".5"/><feColorMatrix values="0 0 0 0 0 0 0 0 0 0 0 0 0 0 0 0 0 0 0.204257 0"/><feBlend in2="BackgroundImageFix" result="effect1_dropShadow"/><feBlend in="SourceGraphic" in2="effect1_dropShadow" result="shape"/></filter></defs></svg>

<svg width="480" height="480" viewBox="0 0 480 480" fill="none" xmlns="http://www.w3.org/2000/svg">
<mask id="mask0-079393" mask-type="alpha" maskUnits="userSpaceOnUse" x="0" y="0" width="480" height="480">
<circle cx="240" cy="240" r="240" fill="url(#paint0_linear-892426)"/>
</mask>
<g mask="url(#mask0-079393)">
<circle cx="240" cy="240" r="240" fill="#31D8A4"/>
<circle cx="240" cy="240" r="208" fill="white"/>
</g>
<circle cx="240" cy="240" r="184" fill="#0E052F"/>
<path d="M240 424C341.62 424 424 341.62 424 240C424 138.38 341.62 56 240 56C138.38 56 56 138.38 56 240C56 341.62 138.38 424 240 424Z" fill="#0D1E30"/>
<g filter="url(#filter0_d-573531)">
<path d="M236.833 125.692C242.341 122.852 249.069 129.418 246.148 134.835C244.434 139.251 237.983 140.424 234.694 137.054C231.209 133.834 232.348 127.44 236.833 125.681V125.692ZM177.55 131.971C180.897 130.614 185.14 133.627 184.795 137.227C185.14 141.114 180.31 143.989 176.895 142.137C172.375 140.412 172.893 133.19 177.55 131.971ZM298.967 142.241C293.735 141.62 292.907 133.524 297.932 131.891C301.842 130.028 305.43 133.535 306.005 137.181C305.177 140.286 302.532 143.138 298.967 142.241ZM191.04 156.788C196.64 153.304 204.621 158.49 203.759 164.896C203.471 171.347 194.754 175.096 189.832 170.726C185.071 167.299 185.796 159.433 191.04 156.788ZM276.485 160.491C278.98 154.166 289.1 153.959 291.941 160.123C294.758 164.919 291.297 170.864 286.294 172.497C279.659 173.716 273.368 166.655 276.485 160.491ZM229.691 172.141C229.634 166.69 234.671 162.642 239.926 162.262C243.422 162.952 247.217 164.413 248.712 167.874C251.507 172.658 249.023 179.225 243.997 181.421C241.697 182.686 238.96 182.215 236.453 182.065C232.624 180.225 229.392 176.58 229.691 172.141ZM141.532 180.076C146.65 176.971 153.55 182.606 151.606 188.08C150.548 192.806 144.085 194.727 140.394 191.714C136.449 188.885 137.07 182.088 141.544 180.064L141.532 180.076ZM330.845 180.053C335.181 176.741 342.345 180.547 341.816 185.929C342.115 190.84 335.917 194.554 331.616 192.024C326.878 189.92 326.383 182.744 330.845 180.064V180.053ZM254.485 189.839C261.638 187.309 270.148 190.334 274.219 196.624C279.601 204.295 276.749 215.979 268.389 220.383C259.741 225.593 247.102 221.188 243.894 211.666C240.271 203.156 245.561 192.507 254.474 189.839H254.485ZM212.476 190.679C220.411 186.999 231.094 190.081 234.924 198.062C239.432 205.836 235.947 216.657 227.886 220.671C219.813 225.19 208.416 221.763 204.518 213.426C200.136 205.353 204.023 194.393 212.476 190.679ZM170.42 204.812C171.03 199.787 175.848 196.509 180.713 196.164C183.25 196.432 185.621 197.553 187.438 199.343C189.256 201.133 190.412 203.487 190.718 206.02C190.373 211.195 186.313 216.232 180.747 216.209C174.618 216.726 169.247 210.723 170.42 204.812ZM294.643 197.268C300.934 193.669 309.662 198.901 309.386 206.008C309.812 213.541 300.152 218.842 293.896 214.426C287.387 210.746 287.893 200.396 294.643 197.268ZM195.398 223.799C202.735 221.809 211.153 225.213 214.753 231.86C218.697 238.553 217.087 247.845 210.958 252.767C203.08 259.966 188.579 257.068 184.393 247.247C179.574 238.243 185.428 226.168 195.387 223.787L195.398 223.799ZM275.059 223.764C282.2 221.752 290.595 224.454 294.436 230.86C299.519 238.185 297.093 249.122 289.537 253.837C281.602 259.322 269.343 256.447 264.973 247.868C259.683 239.002 265.008 226.467 275.059 223.764ZM148.099 232.113C154.447 229.756 161.485 236.644 158.909 242.843C157.345 248.478 149.26 250.571 145.086 246.408C140.198 242.498 142.004 233.815 148.099 232.113ZM320.242 241.106C320.123 238.575 321.008 236.098 322.705 234.216C324.402 232.334 326.774 231.198 329.304 231.055C333.651 231.745 337.883 235.195 337.538 239.853C337.941 246.005 330.408 250.18 325.072 247.293C322.577 246.04 321.3 243.521 320.242 241.106ZM116.876 235.172C120.694 233.528 125.421 236.782 124.547 240.957C124.34 245.683 117.244 247.512 114.645 243.556C112.345 240.807 113.725 236.587 116.876 235.161V235.172ZM357.79 235.069C360.481 233.194 364.805 234.54 365.863 237.633C367.668 241.014 364.356 245.637 360.492 245.074C355.064 245.557 353.316 237.426 357.79 235.069ZM216.144 257.758C226.195 255.194 237.005 263.439 237.074 273.628C237.718 283.921 227.069 293.04 216.788 290.671C208.83 289.406 202.586 281.862 202.85 273.962C202.827 266.395 208.623 259.357 216.144 257.758ZM255.957 257.747C266.158 254.941 277.29 263.336 277.129 273.755C277.669 283.852 267.354 292.672 257.28 290.66C247.792 289.464 240.8 279.217 243.445 270.155C244.779 264.129 249.908 259.23 255.957 257.735V257.747ZM179.183 264.014C186.244 262.83 192.868 270.569 190.005 277.17C187.912 284.208 177.516 286.106 172.916 280.367C167.534 274.847 171.559 264.773 179.183 264.014ZM295.954 264.325C302.256 261.726 309.984 267.085 309.501 273.812C309.754 281.207 300.209 286.313 294.057 281.989C287.076 278.113 288.353 266.694 295.954 264.325ZM328.591 296.525C326.13 292.005 330.604 286.014 335.721 286.853C338.251 286.807 340.034 288.774 341.655 290.43C341.989 293.109 342.552 296.306 340.287 298.365C337.216 302.194 330.259 301.102 328.591 296.525ZM141.509 288.107C146.282 284.99 153.147 289.648 152.066 295.122C151.491 299.986 145.281 302.758 141.199 299.998C136.806 297.502 136.967 290.384 141.509 288.107ZM235.729 298.261C241.973 295.559 249.931 300.906 249.333 307.668C249.793 315.143 239.961 320.318 233.854 315.833C227.069 311.981 228.208 300.642 235.729 298.261ZM192.098 308.278C197.411 305.529 204.541 310.279 204.058 316.144C204.219 320.951 199.458 325.045 194.628 324.332C190.637 324.251 188.038 320.721 186.75 317.374C186.819 313.729 188.349 309.669 192.098 308.289V308.278ZM280.487 308.37C285.961 305.035 293.735 309.819 293.217 316.075C293.355 322.63 284.569 326.816 279.475 322.515C274.553 319.145 275.151 311.049 280.487 308.37ZM295.862 345.745C293.424 342.134 296.288 337.775 300.232 336.947C303.418 337.58 306.787 339.937 306.109 343.548C305.649 348.459 298.358 349.954 295.862 345.756V345.745ZM173.836 342.605C174.802 339.73 177.148 336.89 180.586 337.637C185.589 337.982 187.072 345.411 182.691 347.7C178.758 350.31 174.181 346.734 173.836 342.605ZM232.716 345.906C233.67 341.651 239.248 339.592 242.928 341.846C245.366 342.881 246.079 345.549 246.7 347.826C246.372 349.009 246.065 350.197 245.78 351.391C244.273 353.139 242.33 354.899 239.823 354.841C235.165 355.382 230.956 350.195 232.704 345.906H232.716Z" fill="black"/>
</g>
<path d="M236.833 125.692C242.341 122.852 249.069 129.418 246.148 134.835C244.434 139.251 237.983 140.424 234.694 137.054C231.209 133.834 232.348 127.44 236.833 125.681V125.692ZM177.55 131.971C180.897 130.614 185.14 133.627 184.795 137.227C185.14 141.114 180.31 143.989 176.895 142.137C172.375 140.412 172.893 133.19 177.55 131.971ZM298.967 142.241C293.735 141.62 292.907 133.524 297.932 131.891C301.842 130.028 305.43 133.535 306.005 137.181C305.177 140.286 302.532 143.138 298.967 142.241ZM191.04 156.788C196.64 153.304 204.621 158.49 203.759 164.896C203.471 171.347 194.754 175.096 189.832 170.726C185.071 167.299 185.796 159.433 191.04 156.788ZM276.485 160.491C278.98 154.166 289.1 153.959 291.941 160.123C294.758 164.919 291.297 170.864 286.294 172.497C279.659 173.716 273.368 166.655 276.485 160.491ZM229.691 172.141C229.634 166.69 234.671 162.642 239.926 162.262C243.422 162.952 247.217 164.413 248.712 167.874C251.507 172.658 249.023 179.225 243.997 181.421C241.697 182.686 238.96 182.215 236.453 182.065C232.624 180.225 229.392 176.58 229.691 172.141ZM141.532 180.076C146.65 176.971 153.55 182.606 151.606 188.08C150.548 192.806 144.085 194.727 140.394 191.714C136.449 188.885 137.07 182.088 141.544 180.064L141.532 180.076ZM330.845 180.053C335.181 176.741 342.345 180.547 341.816 185.929C342.115 190.84 335.917 194.554 331.616 192.024C326.878 189.92 326.383 182.744 330.845 180.064V180.053ZM254.485 189.839C261.638 187.309 270.148 190.334 274.219 196.624C279.601 204.295 276.749 215.979 268.389 220.383C259.741 225.593 247.102 221.188 243.894 211.666C240.271 203.156 245.561 192.507 254.474 189.839H254.485ZM212.476 190.679C220.411 186.999 231.094 190.081 234.924 198.062C239.432 205.836 235.947 216.657 227.886 220.671C219.813 225.19 208.416 221.763 204.518 213.426C200.136 205.353 204.023 194.393 212.476 190.679ZM170.42 204.812C171.03 199.787 175.848 196.509 180.713 196.164C183.25 196.432 185.621 197.553 187.438 199.343C189.256 201.133 190.412 203.487 190.718 206.02C190.373 211.195 186.313 216.232 180.747 216.209C174.618 216.726 169.247 210.723 170.42 204.812ZM294.643 197.268C300.934 193.669 309.662 198.901 309.386 206.008C309.812 213.541 300.152 218.842 293.896 214.426C287.387 210.746 287.893 200.396 294.643 197.268ZM195.398 223.799C202.735 221.809 211.153 225.213 214.753 231.86C218.697 238.553 217.087 247.845 210.958 252.767C203.08 259.966 188.579 257.068 184.393 247.247C179.574 238.243 185.428 226.168 195.387 223.787L195.398 223.799ZM275.059 223.764C282.2 221.752 290.595 224.454 294.436 230.86C299.519 238.185 297.093 249.122 289.537 253.837C281.602 259.322 269.343 256.447 264.973 247.868C259.683 239.002 265.008 226.467 275.059 223.764ZM148.099 232.113C154.447 229.756 161.485 236.644 158.909 242.843C157.345 248.478 149.26 250.571 145.086 246.408C140.198 242.498 142.004 233.815 148.099 232.113ZM320.242 241.106C320.123 238.575 321.008 236.098 322.705 234.216C324.402 232.334 326.774 231.198 329.304 231.055C333.651 231.745 337.883 235.195 337.538 239.853C337.941 246.005 330.408 250.18 325.072 247.293C322.577 246.04 321.3 243.521 320.242 241.106ZM116.876 235.172C120.694 233.528 125.421 236.782 124.547 240.957C124.34 245.683 117.244 247.512 114.645 243.556C112.345 240.807 113.725 236.587 116.876 235.161V235.172ZM357.79 235.069C360.481 233.194 364.805 234.54 365.863 237.633C367.668 241.014 364.356 245.637 360.492 245.074C355.064 245.557 353.316 237.426 357.79 235.069ZM216.144 257.758C226.195 255.194 237.005 263.439 237.074 273.628C237.718 283.921 227.069 293.04 216.788 290.671C208.83 289.406 202.586 281.862 202.85 273.962C202.827 266.395 208.623 259.357 216.144 257.758ZM255.957 257.747C266.158 254.941 277.29 263.336 277.129 273.755C277.669 283.852 267.354 292.672 257.28 290.66C247.792 289.464 240.8 279.217 243.445 270.155C244.779 264.129 249.908 259.23 255.957 257.735V257.747ZM179.183 264.014C186.244 262.83 192.868 270.569 190.005 277.17C187.912 284.208 177.516 286.106 172.916 280.367C167.534 274.847 171.559 264.773 179.183 264.014ZM295.954 264.325C302.256 261.726 309.984 267.085 309.501 273.812C309.754 281.207 300.209 286.313 294.057 281.989C287.076 278.113 288.353 266.694 295.954 264.325ZM328.591 296.525C326.13 292.005 330.604 286.014 335.721 286.853C338.251 286.807 340.034 288.774 341.655 290.43C341.989 293.109 342.552 296.306 340.287 298.365C337.216 302.194 330.259 301.102 328.591 296.525ZM141.509 288.107C146.282 284.99 153.147 289.648 152.066 295.122C151.491 299.986 145.281 302.758 141.199 299.998C136.806 297.502 136.967 290.384 141.509 288.107ZM235.729 298.261C241.973 295.559 249.931 300.906 249.333 307.668C249.793 315.143 239.961 320.318 233.854 315.833C227.069 311.981 228.208 300.642 235.729 298.261ZM192.098 308.278C197.411 305.529 204.541 310.279 204.058 316.144C204.219 320.951 199.458 325.045 194.628 324.332C190.637 324.251 188.038 320.721 186.75 317.374C186.819 313.729 188.349 309.669 192.098 308.289V308.278ZM280.487 308.37C285.961 305.035 293.735 309.819 293.217 316.075C293.355 322.63 284.569 326.816 279.475 322.515C274.553 319.145 275.151 311.049 280.487 308.37ZM295.862 345.745C293.424 342.134 296.288 337.775 300.232 336.947C303.418 337.58 306.787 339.937 306.109 343.548C305.649 348.459 298.358 349.954 295.862 345.756V345.745ZM173.836 342.605C174.802 339.73 177.148 336.89 180.586 337.637C185.589 337.982 187.072 345.411 182.691 347.7C178.758 350.31 174.181 346.734 173.836 342.605ZM232.716 345.906C233.67 341.651 239.248 339.592 242.928 341.846C245.366 342.881 246.079 345.549 246.7 347.826C246.372 349.009 246.065 350.197 245.78 351.391C244.273 353.139 242.33 354.899 239.823 354.841C235.165 355.382 230.956 350.195 232.704 345.906H232.716Z" fill="white"/>
<defs>
<filter id="filter0_d-573531" x="112.5" y="124.507" width="254.869" height="231.873" filterUnits="userSpaceOnUse" color-interpolation-filters="sRGB">
<feFlood flood-opacity="0" result="BackgroundImageFix"/>
<feColorMatrix in="SourceAlpha" type="matrix" values="0 0 0 0 0 0 0 0 0 0 0 0 0 0 0 0 0 0 127 0"/>
<feOffset dy="0.5"/>
<feGaussianBlur stdDeviation="0.5"/>
<feColorMatrix type="matrix" values="0 0 0 0 0 0 0 0 0 0 0 0 0 0 0 0 0 0 0.204257 0"/>
<feBlend mode="normal" in2="BackgroundImageFix" result="effect1_dropShadow"/>
<feBlend mode="normal" in="SourceGraphic" in2="effect1_dropShadow" result="shape"/>
</filter>
<linearGradient id="paint0_linear-892426" x1="240" y1="0" x2="240" y2="701.818" gradientUnits="userSpaceOnUse">
<stop stop-color="#08021E"/>
<stop offset="1" stop-color="#1F0777"/>
</linearGradient>
</defs>
</svg>
